public/images/favicon.svg

<?xml version="1.0" encoding="UTF-8" standalone="no"?>
<!-- Created with Inkscape (http://www.inkscape.org/) -->

<svg
   xmlns:dc="http://purl.org/dc/elements/1.1/"
   xmlns:cc="http://creativecommons.org/ns#"
   xmlns:rdf="http://www.w3.org/1999/02/22-rdf-syntax-ns#"
   xmlns:svg="http://www.w3.org/2000/svg"
   xmlns="http://www.w3.org/2000/svg"
   xmlns:sodipodi="http://sodipodi.sourceforge.net/DTD/sodipodi-0.dtd"
   xmlns:inkscape="http://www.inkscape.org/namespaces/inkscape"
   width="64px"
   height="64px"
   id="svg2993"
   version="1.1"
   inkscape:version="0.48.4 r9939"
   sodipodi:docname="favicon.svg"
   inkscape:export-filename="T:\source\codr-io\public\images\favicon-32.png"
   inkscape:export-xdpi="45"
   inkscape:export-ydpi="45">
  <defs
     id="defs2995" />
  <sodipodi:namedview
     id="base"
     pagecolor="#ffffff"
     bordercolor="#666666"
     borderopacity="1.0"
     inkscape:pageopacity="0.0"
     inkscape:pageshadow="2"
     inkscape:zoom="7.4519128"
     inkscape:cx="34.650662"
     inkscape:cy="32"
     inkscape:current-layer="layer1"
     showgrid="true"
     inkscape:document-units="px"
     inkscape:grid-bbox="true"
     inkscape:window-width="1535"
     inkscape:window-height="878"
     inkscape:window-x="57"
     inkscape:window-y="-8"
     inkscape:window-maximized="1" />
  <metadata
     id="metadata2998">
    <rdf:RDF>
      <cc:Work
         rdf:about="">
        <dc:format>image/svg+xml</dc:format>
        <dc:type
           rdf:resource="http://purl.org/dc/dcmitype/StillImage" />
        <dc:title></dc:title>
      </cc:Work>
    </rdf:RDF>
  </metadata>
  <g
     id="layer1"
     inkscape:label="Layer 1"
     inkscape:groupmode="layer">
    <rect
       style="fill:#319ac2;fill-opacity:1;stroke:none"
       id="rect3769"
       width="64"
       height="64"
       x="0"
       y="0"
       rx="7.6999998" />
    <path
       id="path3775"
       d="m 22.45731,44.251329 -1.412925,1.412942 q -0.282576,0.282575 -0.649969,0.282575 -0.367386,0 -0.649961,-0.282575 L 6.5757322,32.4955 q -0.2825754,-0.282575 -0.2825754,-0.649961 0,-0.367393 0.2825754,-0.649977 L 19.744455,18.026808 q 0.282575,-0.282576 0.649961,-0.282576 0.367393,0 0.649969,0.282576 l 1.412925,1.412924 q 0.282575,0.282576 0.282575,0.649978 0,0.367385 -0.282575,0.649961 L 11.351538,31.845491 22.45731,42.951295 q 0.282575,0.282583 0.282575,0.649969 0,0.367393 -0.282575,0.649969 z M 39.158429,14.098816 28.617808,50.581327 q -0.113051,0.367386 -0.438012,0.551055 -0.324952,0.183669 -0.664105,0.07064 l -1.752078,-0.480389 q -0.367394,-0.11305 -0.551063,-0.438012 -0.183668,-0.32496 -0.07064,-0.692354 L 35.682529,13.109766 q 0.113052,-0.367393 0.438012,-0.55107 0.324953,-0.183669 0.664106,-0.07064 l 1.752078,0.480397 q 0.367394,0.113051 0.551062,0.438011 0.183669,0.324953 0.07064,0.692346 z M 57.724581,32.4955 44.555859,45.664271 q -0.282575,0.282575 -0.649961,0.282575 -0.367393,0 -0.649969,-0.282575 l -1.412925,-1.412942 q -0.282575,-0.282576 -0.282575,-0.649961 0,-0.367394 0.282575,-0.649977 L 52.948776,31.845587 41.843004,20.739775 q -0.282575,-0.282576 -0.282575,-0.649969 0,-0.367394 0.282575,-0.64997 l 1.412925,-1.412932 q 0.282576,-0.282576 0.649969,-0.282576 0.367386,0 0.649961,0.282576 l 13.168722,13.168762 q 0.282576,0.282583 0.282576,0.649969 0,0.367394 -0.282576,0.649969 z"
       inkscape:connector-curvature="0"
       style="fill:#ffffff" />
    <rect
       style="fill:#ffffff;fill-opacity:1;stroke:none"
       id="rect2984"
       width="2"
       height="12"
       x="624"
       y="217" />
  </g>
</svg>

<?xml version="1.0" encoding="UTF-8" standalone="no"?>
<svg
   xmlns:dc="http://purl.org/dc/elements/1.1/"
   xmlns:cc="http://creativecommons.org/ns#"
   xmlns:rdf="http://www.w3.org/1999/02/22-rdf-syntax-ns#"
   xmlns:svg="http://www.w3.org/2000/svg"
   xmlns="http://www.w3.org/2000/svg"
   xmlns:sodipodi="http://sodipodi.sourceforge.net/DTD/sodipodi-0.dtd"
   xmlns:inkscape="http://www.inkscape.org/namespaces/inkscape"
   version="1.1"
   width="64"
   height="64"
   id="svg3062"
   inkscape:version="0.48.5 r10040"
   sodipodi:docname="favicon.svg"
   inkscape:export-filename="/Users/alden/Source/codr-io/public/images/favicon-32.png"
   inkscape:export-xdpi="45"
   inkscape:export-ydpi="45">
  <metadata
     id="metadata3083">
    <rdf:RDF>
      <cc:Work
         rdf:about="">
        <dc:format>image/svg+xml</dc:format>
        <dc:type
           rdf:resource="http://purl.org/dc/dcmitype/StillImage" />
        <dc:title></dc:title>
      </cc:Work>
    </rdf:RDF>
  </metadata>
  <defs
     id="defs3081" />
  <sodipodi:namedview
     pagecolor="#ffffff"
     bordercolor="#666666"
     borderopacity="1"
     objecttolerance="10"
     gridtolerance="10"
     guidetolerance="10"
     inkscape:pageopacity="0"
     inkscape:pageshadow="2"
     inkscape:window-width="1136"
     inkscape:window-height="742"
     id="namedview3079"
     showgrid="false"
     inkscape:zoom="5.9375"
     inkscape:cx="52.210526"
     inkscape:cy="25.263158"
     inkscape:window-x="244"
     inkscape:window-y="114"
     inkscape:window-maximized="0"
     inkscape:current-layer="svg3062" />
  <desc
     iVinci="yes"
     version="4.5"
     gridStep="20"
     showGrid="no"
     snapToGrid="no"
     codePlatform="0"
     id="desc3064" />
  <g
     id="Layer1"
     opacity="1">
    <g
       id="Shape1">
      <desc
         shapeID="1"
         type="0"
         basicInfo-basicType="0"
         basicInfo-roundedRectRadius="12"
         basicInfo-polygonSides="6"
         basicInfo-starPoints="5"
         bounding="rect(-32,-32,64,64)"
         text=""
         font-familyName=""
         font-pixelSize="20"
         font-bold="0"
         font-underline="0"
         font-alignment="1"
         strokeStyle="0"
         markerStart="0"
         markerEnd="0"
         shadowEnabled="0"
         shadowOffsetX="0"
         shadowOffsetY="2"
         shadowBlur="4"
         shadowOpacity="160"
         blurEnabled="0"
         blurRadius="4"
         transform="matrix(1,0,0,1,32,32)"
         pers-center="0,0"
         pers-size="0,0"
         pers-start="0,0"
         pers-end="0,0"
         locked="0"
         mesh=""
         flag=""
         id="desc3068" />
      <path
         id="shapePath1"
         d="M0,7.68 C0,3.43845 3.43845,0 7.68,0 L56.32,0 C60.5615,0 64,3.43845 64,7.68 L64,56.32 C64,60.5615 60.5615,64 56.32,64 L7.68,64 C3.43845,64 0,60.5615 0,56.32 L0,7.68 Z"
         style="stroke:none;fill-rule:evenodd;fill:#1abc9c;fill-opacity:1;" />
    </g>
    <g
       id="Shape2">
      <desc
         shapeID="2"
         type="0"
         basicInfo-basicType="0"
         basicInfo-roundedRectRadius="12"
         basicInfo-polygonSides="6"
         basicInfo-starPoints="5"
         bounding="rect(-25.857,-19.4005,51.714,38.8011)"
         text=""
         font-familyName=""
         font-pixelSize="20"
         font-bold="0"
         font-underline="0"
         font-alignment="1"
         strokeStyle="0"
         markerStart="0"
         markerEnd="0"
         shadowEnabled="0"
         shadowOffsetX="0"
         shadowOffsetY="2"
         shadowBlur="4"
         shadowOpacity="160"
         blurEnabled="0"
         blurRadius="4"
         transform="matrix(1,0,0,1,32.1502,31.8455)"
         pers-center="0,0"
         pers-size="0,0"
         pers-start="0,0"
         pers-end="0,0"
         locked="0"
         mesh=""
         flag=""
         id="desc3072" />
      <path
         id="shapePath2"
         d="M22.4573,44.2513 L21.0444,45.6643 C20.856,45.8527 20.6393,45.9468 20.3944,45.9468 C20.1495,45.9468 19.9328,45.8527 19.7445,45.6643 L6.57573,32.4955 C6.38735,32.3071 6.29316,32.0905 6.29316,31.8455 C6.29316,31.6006 6.38735,31.384 6.57573,31.1956 L19.7445,18.0268 C19.9328,17.8384 20.1495,17.7442 20.3944,17.7442 C20.6393,17.7442 20.856,17.8384 21.0444,18.0268 L22.4573,19.4397 C22.6457,19.6281 22.7399,19.8448 22.7399,20.0897 C22.7399,20.3346 22.6457,20.5513 22.4573,20.7397 L11.3515,31.8455 L22.4573,42.9513 C22.6457,43.1397 22.7399,43.3563 22.7399,43.6013 C22.7399,43.8462 22.6457,44.0628 22.4573,44.2512 L22.4573,44.2513 M39.1584,14.0988 L28.6178,50.5813 C28.5424,50.8263 28.3964,51.0099 28.1798,51.1324 C27.9632,51.2548 27.7418,51.2784 27.5157,51.203 L25.7636,50.7226 C25.5187,50.6473 25.335,50.5013 25.2125,50.2846 C25.0901,50.068 25.0666,49.8372 25.1419,49.5923 L35.6825,13.1098 C35.7579,12.8648 35.9039,12.6811 36.1205,12.5587 C36.3372,12.4362 36.5585,12.4127 36.7846,12.4881 L38.5367,12.9685 C38.7817,13.0438 38.9653,13.1898 39.0878,13.4065 C39.2102,13.6231 39.2338,13.8539 39.1584,14.0988 L39.1584,14.0988 M57.7246,32.4955 L44.5559,45.6643 C44.3675,45.8527 44.1508,45.9468 43.9059,45.9468 C43.661,45.9468 43.4443,45.8527 43.2559,45.6643 L41.843,44.2513 C41.6546,44.0629 41.5604,43.8463 41.5604,43.6014 C41.5604,43.3564 41.6546,43.1398 41.843,42.9514 L52.9488,31.8456 L41.843,20.7398 C41.6546,20.5514 41.5604,20.3347 41.5604,20.0898 C41.5604,19.8449 41.6546,19.6282 41.843,19.4398 L43.2559,18.0269 C43.4443,17.8385 43.661,17.7443 43.9059,17.7443 C44.1508,17.7443 44.3675,17.8385 44.5559,18.0269 L57.7246,31.1957 C57.913,31.3841 58.0072,31.6007 58.0072,31.8456 C58.0072,32.0906 57.913,32.3072 57.7246,32.4956 L57.7246,32.4955 Z"
         style="stroke:none;fill-rule:nonzero;fill:#ffffff;fill-opacity:1;" />
    </g>
    <g
       id="Shape3">
      <desc
         shapeID="3"
         type="0"
         basicInfo-basicType="0"
         basicInfo-roundedRectRadius="12"
         basicInfo-polygonSides="6"
         basicInfo-starPoints="5"
         bounding="rect(-1,-6,2,12)"
         text=""
         font-familyName=""
         font-pixelSize="20"
         font-bold="0"
         font-underline="0"
         font-alignment="1"
         strokeStyle="0"
         markerStart="0"
         markerEnd="0"
         shadowEnabled="0"
         shadowOffsetX="0"
         shadowOffsetY="2"
         shadowBlur="4"
         shadowOpacity="160"
         blurEnabled="0"
         blurRadius="4"
         transform="matrix(1,0,0,1,625,223)"
         pers-center="0,0"
         pers-size="0,0"
         pers-start="0,0"
         pers-end="0,0"
         locked="0"
         mesh=""
         flag=""
         id="desc3076" />
      <path
         id="shapePath3"
         d="M624,217 L626,217 L626,229 L624,229 L624,217 Z"
         style="stroke:none;fill-rule:evenodd;fill:#ffffff;fill-opacity:1;" />
    </g>
  </g>
</svg>
